!! 00000] TT[WS
!!!OTL: Fang yang
!!!ARE: Asia, China,ÿShanxi Dingxiang
!! Ethnic Group: Han
!! WI, 53
!!!SCT: J0057
!!!YEM: Copyright 1995, estate of Helmut Schaffrath.
**kern
*ICvox
*Ivox
*M2/4
*k[f#]
*G:
{8b
16b
16dd
4b
=1
8b
16b
16e
4d
=2
8e
8g
4g
=3
8b
8g
8f#
8e
=4
2d}
=5
{8d
8e
8d
8e
=6
8dd
8b
8b
8dd
=7
8g
8g
8B
8d
=8
8a
8g
8f#
8e
=9
2d}
==
!!!AGN: Xiaodiao. Laodong, Fangyang
!!!ONB: ESAC (Essen Associative Code) Database: CHINA
!!!AMT: simple duple
!!!AIN: vox
!!!EED: Helmut Schaffrath
!!!EEV: 1.0
*-
